;FLAVOR:RepRap
;TIME:16411
;Filament used: 38.418m
;Layer height: 0.2
;MINX:39.689
;MINY:5.851
;MINZ:0.2
;MAXX:180.311
;MAXY:215.166
;MAXZ:59
;TARGET_MACHINE.NAME:Creality Ender-3 Pro
;Generated with Cura_SteamEngine 5.6.0
T0
M82 ;absolute extrusion mode
; Ender 3 Custom Start G-code
G92 E0 ; Reset Extruder
G28 ; Home all axes
G29 ; ABL
G1 Z5.0 F3000 ; Move Z Axis up a bit during heating to not damage bed
M104 S175 ; Start heating up the nozzle most of the way
M190 S60 ; Start heating the bed, wait until target temperature reached
M109 S210.0 ; Finish heating the nozzle
G1 Z2.0 F3000 ; Move Z Axis up little to prevent scratching of Heat Bed
G1 X0.1 Y20 Z0.3 F5000.0 ; Move to start position
G1 X0.1 Y200.0 Z0.3 F1500.0 E15 ; Draw the first line
G1 X0.4 Y200.0 Z0.3 F5000.0 ; Move to side a little
G1 X0.4 Y20 Z0.3 F1500.0 E30 ; Draw the second line
G92 E0 ; Reset Extruder
G1 Z2.0 F3000 ; Move Z Axis up little to prevent scratching of Heat Bed
G1 X5 Y20 Z0.3 F5000.0 ; Move over to prevent blob squish
M83 ;relative extrusion mode
G1 F1800 E-0.8
;LAYER_COUNT:295
;LAYER:0
M107
M204 T500
G0 F9000 X62.905 Y34.144 Z0.2
M204 P500
;TYPE:SKIRT
G1 F1800 E0.8
G1 F6000 X63.306 Y33.494 E0.0254
G1 X63.855 Y32.689 E0.03241
G1 X64.445 Y31.966 E0.03104
G1 X64.941 Y31.445 E0.02393
G1 X65.323 Y31.069 E0.01783
G1 X66.431 Y30.115 E0.04863
G1 X66.874 Y29.783 E0.01841
G1 X67.653 Y29.252 E0.03136
G1 X68.764 Y28.647 E0.04208
G1 X70.193 Y27.975 E0.05252
G1 X70.946 Y27.638 E0.02744
G1 X73.196 Y26.552 E0.0831
G1 X75.431 Y25.394 E0.08372
G1 X77.643 Y24.167 E0.08413
G1 X79.804 Y22.888 E0.08352
G1 X81.927 Y21.549 E0.08348
G1 X84.029 Y20.139 E0.08418
G1 X86.077 Y18.678 E0.08367
G1 X88.065 Y17.174 E0.08291
G1 X90.032 Y15.597 E0.08385
G1 X91.958 Y13.962 E0.08403
G1 X93.499 Y12.563 E0.06922
G1 X94.882 Y11.369 E0.06077
G1 X95.278 Y11.045 E0.01702
G1 X96.064 Y10.43 E0.03319
G1 X96.668 Y9.992 E0.02482
G1 X97.422 Y9.501 E0.02993
G1 X98.402 Y8.919 E0.03791
G1 X99.152 Y8.505 E0.02849
G1 X99.975 Y8.096 E0.03057
G1 X100.971 Y7.653 E0.03626
G1 X101.806 Y7.324 E0.02985
G1 X102.536 Y7.071 E0.0257
G1 X103.532 Y6.762 E0.03468
G1 X104.453 Y6.515 E0.03172
G1 X105.005 Y6.389 E0.01883
G1 X105.892 Y6.21 E0.0301
G1 X106.843 Y6.055 E0.03205
G1 X107.425 Y5.984 E0.0195
G1 X107.952 Y5.934 E0.01761
G1 X108.519 Y5.895 E0.0189
G1 X109.618 Y5.851 E0.03658
G1 X110.521 Y5.852 E0.03003
G1 X111.533 Y5.897 E0.03369
G1 X112.405 Y5.972 E0.02911
G1 X113.282 Y6.084 E0.02941
G1 X114.215 Y6.235 E0.03144
G1 X115.408 Y6.48 E0.04051
G1 X116.284 Y6.706 E0.03009
G1 X117.492 Y7.08 E0.04206
G1 X118.232 Y7.338 E0.02607
G1 X119.07 Y7.671 E0.02999
G1 X120.062 Y8.114 E0.03613
G1 X120.859 Y8.511 E0.02961
G1 X121.602 Y8.921 E0.02823
G1 X122.653 Y9.548 E0.0407
G1 X123.379 Y10.032 E0.02902
G1 X124.245 Y10.662 E0.03562
G1 X124.936 Y11.209 E0.02931
G1 X125.943 Y12.081 E0.04431
G1 X128.015 Y13.949 E0.09279
G1 X129.966 Y15.606 E0.08514
G1 X131.889 Y17.15 E0.08202
G1 X133.901 Y18.669 E0.08385
G1 X135.994 Y20.162 E0.08551
G1 X138.051 Y21.541 E0.08237
G1 X140.185 Y22.887 E0.08392
G1 X142.338 Y24.162 E0.08322
G1 X144.547 Y25.385 E0.08398
G1 X146.794 Y26.55 E0.08418
G1 X149.036 Y27.633 E0.08281
G1 X150.008 Y28.065 E0.03538
G1 X151.119 Y28.581 E0.04074
G1 X151.98 Y29.031 E0.03231
G1 X152.749 Y29.521 E0.03033
G1 X153.193 Y29.832 E0.01803
G1 X153.958 Y30.42 E0.03209
G1 X154.513 Y30.919 E0.02482
G1 X154.996 Y31.386 E0.02235
G1 X155.644 Y32.072 E0.03139
G1 X156.393 Y33.039 E0.04068
G1 X156.771 Y33.607 E0.02269
G1 X157.029 Y34.021 E0.01622
G1 X157.51 Y34.876 E0.03263
G1 X157.98 Y35.942 E0.03875
G1 X158.18 Y36.478 E0.01903
G1 X158.582 Y37.813 E0.04637
G1 X158.69 Y38.283 E0.01604
G1 X158.869 Y39.27 E0.03336
G1 X158.968 Y40.514 E0.04151
G1 X158.996 Y41.842 E0.04418
G1 X158.999 Y98.547 E1.88602
G1 X159.036 Y101.119 E0.08555
G1 X159.145 Y103.687 E0.08549
G1 X159.317 Y106.129 E0.08142
G1 X159.568 Y108.644 E0.08406
G1 X159.893 Y111.186 E0.08524
G1 X160.279 Y113.653 E0.08305
G1 X160.735 Y116.109 E0.08308
G1 X161.268 Y118.578 E0.08401
G1 X161.857 Y120.988 E0.08252
G1 X162.539 Y123.461 E0.08532
G1 X163.276 Y125.871 E0.08382
G1 X164.079 Y128.251 E0.08354
G1 X164.948 Y130.609 E0.08358
G1 X165.887 Y132.944 E0.08371
G1 X166.897 Y135.266 E0.08422
G1 X167.951 Y137.518 E0.0827
G1 X169.09 Y139.779 E0.0842
G1 X170.3 Y142.019 E0.08468
G1 X171.533 Y144.154 E0.082
G1 X172.857 Y146.308 E0.08409
G1 X174.237 Y148.416 E0.0838
G1 X176.257 Y151.293 E0.11692
G1 X176.654 Y151.902 E0.02418
G1 X177.257 Y152.917 E0.03927
G1 X177.664 Y153.656 E0.02806
G1 X178.068 Y154.47 E0.03022
G1 X178.573 Y155.629 E0.04205
G1 X178.927 Y156.552 E0.03288
G1 X179.224 Y157.436 E0.03102
G1 X179.471 Y158.26 E0.02861
G1 X179.692 Y159.121 E0.02957
G1 X179.939 Y160.333 E0.04114
G1 X180.074 Y161.125 E0.02672
G1 X180.187 Y162.023 E0.0301
G1 X180.28 Y163.252 E0.04099
G1 X180.311 Y164.239 E0.03284
G1 X180.3 Y165.232 E0.03303
G1 X180.247 Y166.269 E0.03454
G1 X180.179 Y167.053 E0.02617
G1 X180.069 Y167.911 E0.02877
G1 X179.891 Y168.974 E0.03585
G1 X179.742 Y169.701 E0.02468
G1 X179.622 Y170.196 E0.01694
G1 X179.459 Y170.791 E0.02052
G1 X179.086 Y171.995 E0.04192
G1 X178.827 Y172.736 E0.02611
G1 X178.497 Y173.567 E0.02974
G1 X178.055 Y174.558 E0.03609
G1 X177.66 Y175.353 E0.02953
G1 X177.272 Y176.059 E0.02679
G1 X176.643 Y177.114 E0.04085
G1 X176.133 Y177.882 E0.03066
G1 X175.525 Y178.719 E0.03441
G1 X174.953 Y179.44 E0.03061
G1 X173.385 Y181.252 E0.0797
G1 X173.21 Y181.469 E0.00927
G1 X172.538 Y182.242 E0.03407
G1 X170.931 Y184.2 E0.08425
G1 X169.414 Y186.158 E0.08238
G1 X167.917 Y188.209 E0.08445
G1 X166.486 Y190.29 E0.084
G1 X165.14 Y192.368 E0.08235
G1 X163.81 Y194.557 E0.08519
G1 X162.58 Y196.719 E0.08273
G1 X161.374 Y198.98 E0.08523
G1 X160.269 Y201.205 E0.08263
G1 X159.222 Y203.472 E0.08305
G1 X157.991 Y206.363 E0.10451
G1 X157.614 Y207.205 E0.03068
G1 X157.168 Y208.085 E0.03281
G1 X156.5 Y209.125 E0.04111
G1 X156.154 Y209.601 E0.01957
G1 X155.59 Y210.307 E0.03005
G1 X155.06 Y210.874 E0.02581
G1 X154.664 Y211.269 E0.0186
G1 X153.954 Y211.917 E0.03197
G1 X153.493 Y212.282 E0.01956
G1 X153.16 Y212.529 E0.01379
G1 X152.358 Y213.071 E0.03219
G1 X151.644 Y213.474 E0.02727
G1 X151.277 Y213.663 E0.01373
G1 X150.369 Y214.079 E0.03322
G1 X149.34 Y214.452 E0.0364
G1 X148.416 Y214.729 E0.03208
G1 X147.75 Y214.875 E0.02268
G1 X147.171 Y214.98 E0.01957
G1 X146.212 Y215.11 E0.03219
G1 X145.415 Y215.155 E0.02655
G1 X144.726 Y215.166 E0.02292
G1 X75.205 Y215.162 E2.31228
G1 X74.496 Y215.15 E0.02358
G1 X73.511 Y215.089 E0.03282
G1 X72.306 Y214.89 E0.04062
G1 X71.625 Y214.736 E0.02322
G1 X70.754 Y214.497 E0.03004
G1 X70.137 Y214.28 E0.02175
G1 X69.773 Y214.139 E0.01298
G1 X68.607 Y213.604 E0.04267
G1 X68.126 Y213.346 E0.01815
G1 X67.288 Y212.847 E0.03244
G1 X66.462 Y212.252 E0.03386
G1 X65.997 Y211.88 E0.01981
G1 X65.253 Y211.226 E0.03295
G1 X64.628 Y210.574 E0.03004
G1 X64.188 Y210.043 E0.02294
G1 X63.766 Y209.499 E0.0229
G1 X63.201 Y208.696 E0.03266
G1 X62.645 Y207.717 E0.03745
G1 X62.32 Y207.065 E0.02423
G1 X62.039 Y206.451 E0.02246
G1 X61.588 Y205.377 E0.03874
G1 X60.514 Y202.914 E0.08937
G1 X59.453 Y200.655 E0.08301
G1 X58.305 Y198.381 E0.08473
G1 X57.119 Y196.19 E0.08286
G1 X55.861 Y194.014 E0.0836
G1 X54.548 Y191.886 E0.08317
G1 X53.162 Y189.775 E0.08399
G1 X51.701 Y187.681 E0.08492
G1 X50.235 Y185.702 E0.08191
G1 X48.677 Y183.718 E0.0839
G1 X46.697 Y181.349 E0.10269
G1 X45.023 Y179.41 E0.0852
G1 X44.464 Y178.705 E0.02992
G1 X43.849 Y177.855 E0.0349
G1 X43.354 Y177.109 E0.02978
G1 X42.926 Y176.4 E0.02755
G1 X42.33 Y175.333 E0.04065
G1 X41.926 Y174.52 E0.0302
G1 X41.481 Y173.516 E0.03653
G1 X41.148 Y172.671 E0.03021
G1 X40.774 Y171.563 E0.0389
G1 X40.527 Y170.74 E0.02858
G1 X40.302 Y169.864 E0.03008
G1 X40.057 Y168.656 E0.041
G1 X39.921 Y167.851 E0.02715
G1 X39.809 Y166.95 E0.0302
G1 X39.723 Y165.808 E0.03809
G1 X39.698 Y165.199 E0.02027
G1 X39.689 Y164.206 E0.03303
G1 X39.722 Y163.231 E0.03245
G1 X39.748 Y162.784 E0.01489
G1 X39.816 Y161.983 E0.02674
G1 X39.936 Y161.061 E0.03092
G1 X40.144 Y159.862 E0.04047
G1 X40.308 Y159.085 E0.02641
G1 X40.535 Y158.233 E0.02933
G1 X40.787 Y157.403 E0.02885
G1 X41.083 Y156.527 E0.03075
G1 X41.429 Y155.623 E0.03219
G1 X41.611 Y155.193 E0.01553
G1 X41.954 Y154.426 E0.02795
G1 X42.346 Y153.639 E0.02924
G1 X42.751 Y152.904 E0.02791
G1 X43.384 Y151.844 E0.04106
G1 X43.786 Y151.23 E0.02441
G1 X45.484 Y148.826 E0.09789
G1 X46.863 Y146.748 E0.08295
G1 X48.202 Y144.599 E0.08422
G1 X49.472 Y142.423 E0.0838
G1 X50.671 Y140.234 E0.08301
G1 X51.828 Y137.968 E0.08462
G1 X52.888 Y135.739 E0.08209
G1 X53.924 Y133.392 E0.08533
G1 X54.87 Y131.079 E0.08312
G1 X55.753 Y128.727 E0.08356
G1 X56.576 Y126.329 E0.08432
G1 X57.317 Y123.957 E0.08265
G1 X58.006 Y121.51 E0.08455
G1 X58.619 Y119.061 E0.08397
G1 X59.165 Y116.592 E0.0841
G1 X59.632 Y114.158 E0.08243
G1 X60.042 Y111.639 E0.08488
G1 X60.371 Y109.176 E0.08265
G1 X60.638 Y106.636 E0.08495
G1 X60.827 Y104.155 E0.08276
G1 X60.946 Y101.665 E0.08291
G1 X61.001 Y98.462 E0.10655
G1 X61.003 Y41.589 E1.8916
G1 X61.01 Y41.04 E0.01826
G1 X61.042 Y40.353 E0.02287
G1 X61.091 Y39.743 E0.02035
G1 X61.212 Y38.785 E0.03212
G1 X61.357 Y38.074 E0.02413
G1 X61.451 Y37.687 E0.01325
G1 X61.819 Y36.481 E0.04194
G1 X61.984 Y36.037 E0.01575
G1 X62.368 Y35.134 E0.03264
G1 X62.905 Y34.144 E0.03746
G0 F9000 X63.246 Y34.354
G1 F6000 X63.637 Y33.719 E0.0248
G1 X64.165 Y32.942 E0.03125
G1 X64.735 Y32.242 E0.03002
G1 X65.222 Y31.73 E0.0235
G1 X65.604 Y31.354 E0.01783
G1 X66.671 Y30.435 E0.04684
G1 X67.1 Y30.113 E0.01784
G1 X67.845 Y29.603 E0.03003
G1 X68.934 Y29.009 E0.04126
G1 X70.356 Y28.34 E0.05227
G1 X71.118 Y27.999 E0.02777
G1 X73.37 Y26.912 E0.08317
G1 X75.625 Y25.744 E0.08447
G1 X77.837 Y24.517 E0.08413
G1 X80.008 Y23.232 E0.08391
G1 X82.15 Y21.881 E0.08423
G1 X84.261 Y20.465 E0.08454
G1 X86.309 Y19.004 E0.08367
G1 X88.306 Y17.493 E0.08329
G1 X90.291 Y15.902 E0.08461
G1 X92.217 Y14.267 E0.08403
G1 X93.76 Y12.866 E0.06932
G1 X95.136 Y11.678 E0.06046
G1 X95.524 Y11.36 E0.01669
G1 X96.299 Y10.754 E0.03272
G1 X96.887 Y10.327 E0.02417
G1 X97.626 Y9.845 E0.02935
G1 X98.595 Y9.269 E0.03749
G1 X99.33 Y8.863 E0.02793
G1 X100.138 Y8.461 E0.03002
G1 X101.118 Y8.025 E0.03568
G1 X101.937 Y7.702 E0.02928
G1 X102.655 Y7.453 E0.02528
G1 X103.636 Y7.148 E0.03417
G1 X104.542 Y6.905 E0.0312
G1 X105.084 Y6.781 E0.01849
G1 X105.957 Y6.605 E0.02962
G1 X106.892 Y6.452 E0.03151
G1 X107.463 Y6.382 E0.01913
G1 X107.979 Y6.333 E0.01724
G1 X108.535 Y6.295 E0.01854
G1 X109.618 Y6.251 E0.03605
G1 X110.503 Y6.252 E0.02944
G1 X111.499 Y6.296 E0.03316
G1 X112.354 Y6.369 E0.02854
G1 X113.218 Y6.479 E0.02897
G1 X114.135 Y6.627 E0.03089
G1 X115.308 Y6.867 E0.03982
G1 X116.166 Y7.088 E0.02947
G1 X117.361 Y7.458 E0.04161
G1 X118.085 Y7.71 E0.0255
G1 X118.907 Y8.036 E0.02941
G1 X119.884 Y8.472 E0.03558
G1 X120.666 Y8.861 E0.02905
G1 X121.397 Y9.264 E0.02776
G1 X122.431 Y9.881 E0.04005
G1 X123.144 Y10.356 E0.0285
G1 X123.997 Y10.976 E0.03507
G1 X124.674 Y11.512 E0.02872
G1 X125.675 Y12.378 E0.04402
G1 X127.756 Y14.254 E0.09319
G1 X129.707 Y15.911 E0.08514
G1 X131.648 Y17.469 E0.08278
G1 X133.669 Y18.995 E0.08423
G1 X135.762 Y20.488 E0.08551
G1 X137.828 Y21.873 E0.08273
G1 X139.981 Y23.231 E0.08466
G1 X142.144 Y24.512 E0.08361
G1 X144.353 Y25.735 E0.08398
G1 X146.62 Y26.91 E0.08493
G1 X148.865 Y27.994 E0.08292
G1 X149.84 Y28.428 E0.0355
G1 X150.934 Y28.936 E0.04012
G1 X151.765 Y29.369 E0.03117
G1 X152.52 Y29.849 E0.02976
G1 X152.95 Y30.149 E0.01744
G1 X153.691 Y30.717 E0.03105
G1 X154.235 Y31.206 E0.02433
G1 X154.705 Y31.661 E0.02176
G1 X155.353 Y32.347 E0.03139
G1 X156.06 Y33.261 E0.03843
G1 X156.432 Y33.819 E0.02231
G1 X156.681 Y34.217 E0.01561
G1 X157.144 Y35.038 E0.03135
G1 X157.605 Y36.082 E0.03796
G1 X157.797 Y36.594 E0.01819
G1 X158.192 Y37.903 E0.04548
G1 X158.3 Y38.373 E0.01604
G1 X158.47 Y39.302 E0.03141
G1 X158.568 Y40.522 E0.04071
G1 X158.596 Y41.842 E0.04391
G1 X158.599 Y98.547 E1.88602
G1 X158.636 Y101.136 E0.08612
G1 X158.745 Y103.704 E0.08549
G1 X158.919 Y106.169 E0.08219
G1 X159.171 Y108.695 E0.08443
G1 X159.496 Y111.237 E0.08524
G1 X159.886 Y113.726 E0.08379
G1 X160.344 Y116.193 E0.08345
G1 X160.879 Y118.673 E0.08438
G1 X161.471 Y121.094 E0.0829
G1 X162.156 Y123.578 E0.0857
G1 X162.893 Y125.988 E0.08382
G1 X163.7 Y128.379 E0.08393
G1 X164.577 Y130.758 E0.08433
G1 X165.52 Y133.104 E0.0841
G1 X166.53 Y135.426 E0.08422
G1 X167.594 Y137.698 E0.08344
G1 X168.738 Y139.969 E0.08458
G1 X169.948 Y142.209 E0.08468
G1 X171.192 Y144.364 E0.08276
G1 X172.522 Y146.527 E0.08445
G1 X173.902 Y148.635 E0.0838
G1 X175.922 Y151.511 E0.11689
G1 X176.31 Y152.106 E0.02363
G1 X176.907 Y153.11 E0.03885
G1 X177.306 Y153.834 E0.0275
G1 X177.701 Y154.63 E0.02956
G1 X178.206 Y155.789 E0.04205
G1 X178.548 Y156.679 E0.03171
G1 X178.841 Y157.551 E0.0306
G1 X179.084 Y158.36 E0.0281
G1 X179.3 Y159.201 E0.02888
G1 X179.545 Y160.4 E0.0407
G1 X179.677 Y161.175 E0.02615
G1 X179.788 Y162.053 E0.02943
G1 X179.88 Y163.265 E0.04043
G1 X179.911 Y164.235 E0.03228
G1 X179.901 Y165.211 E0.03246
G1 X179.848 Y166.235 E0.0341
G1 X179.782 Y167.003 E0.02564
G1 X179.675 Y167.845 E0.02823
G1 X179.499 Y168.894 E0.03538
G1 X179.353 Y169.607 E0.02421
G1 X179.236 Y170.091 E0.01656
G1 X179.077 Y170.673 E0.02007
G1 X178.708 Y171.863 E0.04144
G1 X178.455 Y172.589 E0.02557
G1 X178.132 Y173.404 E0.02916
G1 X177.697 Y174.38 E0.03554
G1 X177.31 Y175.16 E0.02896
G1 X176.928 Y175.854 E0.02635
G1 X176.299 Y176.909 E0.04085
G1 X175.809 Y177.647 E0.02946
G1 X175.211 Y178.471 E0.03386
G1 X174.651 Y179.178 E0.03
G1 X173.083 Y180.99 E0.0797
G1 X172.908 Y181.207 E0.00927
G1 X172.236 Y181.98 E0.03407
G1 X170.622 Y183.946 E0.0846
G1 X169.098 Y185.913 E0.08276
G1 X167.587 Y187.982 E0.08521
G1 X166.156 Y190.063 E0.084
G1 X164.798 Y192.16 E0.08309
G1 X163.468 Y194.349 E0.08519
G1 X162.232 Y196.521 E0.08312
G1 X161.021 Y198.792 E0.0856
G1 X159.911 Y201.027 E0.083
G1 X158.859 Y203.304 E0.08343
G1 X157.626 Y206.2 E0.10469
G1 X157.257 Y207.025 E0.03006
G1 X156.831 Y207.869 E0.03144
G1 X156.176 Y208.89 E0.04035
G1 X155.841 Y209.351 E0.01895
G1 X155.277 Y210.057 E0.03005
G1 X154.778 Y210.591 E0.02431
G1 X154.394 Y210.974 E0.01804
G1 X153.706 Y211.603 E0.031
G1 X153.254 Y211.961 E0.01918
G1 X152.936 Y212.198 E0.01319
G1 X152.161 Y212.723 E0.03113
G1 X151.461 Y213.118 E0.02673
G1 X151.094 Y213.307 E0.01373
G1 X150.232 Y213.703 E0.03155
G1 X149.225 Y214.069 E0.03564
G1 X148.33 Y214.338 E0.03108
G1 X147.664 Y214.484 E0.02268
G1 X147.117 Y214.584 E0.01849
G1 X146.189 Y214.711 E0.03115
G1 X145.409 Y214.755 E0.02598
G1 X144.726 Y214.766 E0.02272
G1 X75.211 Y214.762 E2.31208
G1 X74.52 Y214.751 E0.02299
G1 X73.576 Y214.694 E0.03145
G1 X72.371 Y214.495 E0.04062
G1 X71.731 Y214.35 E0.02183
G1 X70.86 Y214.111 E0.03004
G1 X70.281 Y213.907 E0.02042
G1 X69.94 Y213.775 E0.01216
G1 X68.796 Y213.251 E0.04185
G1 X68.33 Y213.002 E0.01757
G1 X67.522 Y212.523 E0.03124
G1 X66.712 Y211.939 E0.03321
G1 X66.261 Y211.579 E0.01919
G1 X65.542 Y210.949 E0.0318
G1 X64.917 Y210.297 E0.03004
G1 X64.504 Y209.798 E0.02154
G1 X64.093 Y209.268 E0.02231
G1 X63.549 Y208.498 E0.03136
G1 X62.993 Y207.519 E0.03745
G1 X62.684 Y206.899 E0.02304
G1 X62.408 Y206.296 E0.02206
G1 X61.957 Y205.222 E0.03874
G1 X60.881 Y202.754 E0.08955
G1 X59.815 Y200.485 E0.08338
G1 X58.662 Y198.201 E0.0851
G1 X57.471 Y196 E0.08324
G1 X56.207 Y193.814 E0.08399
G1 X54.888 Y191.676 E0.08355
G1 X53.49 Y189.546 E0.08474
G1 X52.029 Y187.452 E0.08492
G1 X50.55 Y185.455 E0.08265
G1 X48.992 Y183.471 E0.0839
G1 X47 Y181.087 E0.10333
G1 X45.336 Y179.161 E0.08466
G1 X44.788 Y178.47 E0.02933
G1 X44.182 Y177.634 E0.03434
G1 X43.696 Y176.902 E0.02922
G1 X43.275 Y176.205 E0.02708
G1 X42.688 Y175.155 E0.04001
G1 X42.292 Y174.358 E0.0296
G1 X41.853 Y173.369 E0.03599
G1 X41.527 Y172.543 E0.02954
G1 X41.157 Y171.448 E0.03844
G1 X40.914 Y170.641 E0.02803
G1 X40.694 Y169.784 E0.02943
G1 X40.451 Y168.589 E0.04056
G1 X40.318 Y167.801 E0.02658
G1 X40.208 Y166.92 E0.02953
G1 X40.123 Y165.791 E0.03766
G1 X40.098 Y165.195 E0.01984
G1 X40.089 Y164.219 E0.03246
G1 X40.121 Y163.255 E0.03208
G1 X40.147 Y162.818 E0.01456
